assets/src/images/icons/ic_money.svg

<svg width="50" height="50" viewBox="0 0 50 50" fill="none" xmlns="http://www.w3.org/2000/svg">
<path fill-rule="evenodd" clip-rule="evenodd" d="M49.0219 0C49.281 0 49.5294 0.102929 49.7126 0.286035C49.8957 0.46914 49.9984 0.717577 49.9986 0.976561V49.0234C49.9986 49.5627 49.5613 50 49.0221 50H19.5429C18.3536 50 17.2051 49.5695 16.3088 48.7879L15.1476 47.7753C14.8312 49.0511 13.6767 49.9999 12.3044 49.9999H2.92958C1.31416 49.9999 0 48.6856 0 47.0702V31.1527C0 29.5373 1.31416 28.2231 2.92958 28.2231H12.3043C13.3075 28.2231 14.1944 28.7303 14.7226 29.5016L18.8729 25.3513L14.0754 7.44686C13.9357 6.92596 14.2449 6.39052 14.7659 6.25087L24.0226 3.7705V0.97783C24.0226 0.438573 24.4598 0.00126953 24.9991 0.00126953L49.0219 0ZM12.3042 48.0469C12.8427 48.0469 13.2807 47.6087 13.2807 47.0703H13.2808V31.1528C13.2808 30.6143 12.8427 30.1762 12.3043 30.1762H8.59344V41.4257C8.59344 41.965 8.15614 42.4023 7.61688 42.4023C7.07762 42.4023 6.64032 41.965 6.64032 41.4257V30.1762H2.92949C2.39101 30.1762 1.95293 30.6143 1.95293 31.1528V47.0703C1.95293 47.6088 2.39101 48.0469 2.92949 48.0469H12.3042ZM24.0226 5.79247L16.2146 7.88465L20.8011 25.0023C20.8764 25.1031 20.9327 25.219 20.9648 25.3448L21.9749 29.2963H23.9348L20.1283 15.2008C20.0606 14.9505 20.0955 14.6835 20.2249 14.4588C20.3543 14.234 20.5678 14.0701 20.8183 14.0029C22.2188 13.6276 23.0529 12.183 22.6776 10.7825C22.6105 10.5323 22.6457 10.2658 22.7752 10.0415C22.9046 9.81717 23.1178 9.65359 23.3681 9.5865L24.0226 9.41111V5.79247ZM24.0226 22.1298V13.8895C23.5944 14.5757 22.9855 15.1505 22.2415 15.5346L24.0226 22.1298ZM19.5427 48.0468H38.0523C38.8061 48.0468 39.4194 47.4335 39.4195 46.68C39.4195 45.9261 38.8062 45.3128 38.0523 45.3128H30.5784C30.0391 45.3128 29.6018 44.8755 29.6018 44.3362C29.6018 43.797 30.0391 43.3597 30.5784 43.3597H41.3833C42.1372 43.3597 42.7505 42.7464 42.7505 41.9925C42.7505 41.2386 42.1372 40.6253 41.3833 40.6253H30.5784C30.0391 40.6253 29.6018 40.188 29.6018 39.6488C29.6018 39.1095 30.0391 38.6722 30.5784 38.6722H43.4729C44.2268 38.6722 44.8401 38.0589 44.8401 37.305C44.8401 36.5511 44.2268 35.9378 43.4729 35.9378H30.5784C30.0391 35.9378 29.6018 35.5005 29.6018 34.9613C29.6018 34.422 30.0391 33.9847 30.5784 33.9847H40.4162C41.1701 33.9847 41.7834 33.3714 41.7834 32.6175C41.7834 31.8636 41.1701 31.2503 40.4162 31.2503L21.2167 31.2492C20.7705 31.2492 20.3811 30.9468 20.2706 30.5145L19.4973 27.4891L15.2339 31.7526V45.2591L17.5922 47.3158C18.1328 47.7872 18.8255 48.0468 19.5427 48.0468ZM48.0454 48.0468H48.0455V1.95312L25.9758 1.9542V29.2972H27.8832V9.85691C27.8832 9.31766 28.3206 8.88035 28.8598 8.88035C30.3096 8.88035 31.4891 7.70086 31.4891 6.25096C31.4891 5.71171 31.9264 5.2744 32.4657 5.2744H41.5551C42.0944 5.2744 42.5317 5.71171 42.5317 6.25096C42.5317 7.70077 43.711 8.88035 45.1609 8.88035C45.7002 8.88035 46.1375 9.31766 46.1375 9.85691V13.7649C46.1375 14.3042 45.7002 14.7415 45.1609 14.7415C44.6217 14.7415 44.1844 14.3042 44.1844 13.7649V10.7288C42.4399 10.3486 41.0633 8.97215 40.6832 7.22753H33.3374C32.9574 8.97215 31.5808 10.3486 29.8363 10.7288V29.2973H35.1744C33.5077 28.5825 32.3369 26.9256 32.3369 25C32.3369 22.4229 34.4334 20.3263 37.0104 20.3263C39.5874 20.3263 41.6839 22.4229 41.6839 25C41.6839 26.9256 40.5132 28.5825 38.8463 29.2973H40.4161C42.2469 29.2973 43.7363 30.7867 43.7363 32.6175C43.7363 33.1048 43.63 33.5674 43.4406 33.9847H43.4727C43.717 33.9847 43.955 34.012 44.1845 34.0623V22.9499C44.1845 22.4106 44.6218 21.9733 45.161 21.9733C45.7003 21.9733 46.1376 22.4106 46.1376 22.9499V35.3268C46.549 35.8795 46.793 36.5642 46.793 37.3048C46.793 38.8315 45.7569 40.12 44.3511 40.5062C44.5761 40.9536 44.7035 41.4582 44.7035 41.9922C44.7035 43.823 43.2141 45.3124 41.3833 45.3124H41.0768C41.2661 45.7297 41.3725 46.1923 41.3725 46.6796C41.3725 47.1669 41.2661 47.6295 41.0768 48.0468H48.0454ZM34.2902 25.0001C34.2902 26.5 35.5105 27.7205 37.0106 27.7205C38.5107 27.7205 39.731 26.4999 39.731 25C39.731 23.5 38.5106 22.2795 37.0106 22.2795C35.5106 22.2795 34.2902 23.5001 34.2902 25.0001ZM45.8512 17.865C45.6695 17.6833 45.4186 17.5789 45.1608 17.5789C44.9039 17.5789 44.652 17.6833 44.4703 17.865C44.2888 18.0467 44.1842 18.2986 44.1842 18.5554C44.1842 18.8123 44.2887 19.0642 44.4703 19.2458C44.652 19.4274 44.9039 19.532 45.1608 19.532C45.4186 19.532 45.6695 19.4275 45.8512 19.2458C46.0337 19.0642 46.1382 18.8123 46.1382 18.5554C46.1382 18.2986 46.0337 18.0467 45.8512 17.865ZM8.3071 44.4268C8.12556 44.245 7.8736 44.1406 7.61677 44.1406C7.35993 44.1406 7.10798 44.245 6.92634 44.4268C6.7447 44.6085 6.64021 44.8604 6.64021 45.1172C6.64021 45.374 6.7446 45.626 6.92634 45.8075C7.10798 45.9892 7.35993 46.0938 7.61677 46.0938C7.8736 46.0938 8.12556 45.9893 8.3071 45.8075C8.48874 45.626 8.59333 45.374 8.59333 45.1172C8.59333 44.8604 8.48884 44.6084 8.3071 44.4268Z" fill="#0090A1"/>
</svg>

<svg width="50" height="50" viewBox="0 0 50 50" fill="none" xmlns="http://www.w3.org/2000/svg"><path fill-rule="evenodd" clip-rule="evenodd" d="M49.022 0a.977.977 0 01.977.977v48.046c0 .54-.438.977-.977.977h-29.48a4.92 4.92 0 01-3.233-1.212l-1.161-1.013A2.934 2.934 0 0112.304 50H2.93A2.933 2.933 0 010 47.07V31.153a2.933 2.933 0 012.93-2.93h9.374a2.93 2.93 0 012.419 1.279l4.15-4.15-4.798-17.905a.976.976 0 01.69-1.196l9.258-2.48V.978c0-.54.437-.977.976-.977L49.022 0zM12.304 48.047a.978.978 0 00.977-.977V31.153a.978.978 0 00-.977-.977h-3.71v11.25a.977.977 0 01-1.954 0v-11.25H2.93a.978.978 0 00-.977.977V47.07c0 .539.438.977.976.977h9.375zM24.023 5.792l-7.808 2.093L20.8 25.002a.981.981 0 01.164.343l1.01 3.951h1.96l-3.807-14.095a.976.976 0 01.69-1.198 2.632 2.632 0 001.86-3.22.976.976 0 01.69-1.197l.655-.175V5.792zm0 16.338v-8.24a4.574 4.574 0 01-1.782 1.645l1.782 6.595zm-4.48 25.917h18.51a1.37 1.37 0 001.367-1.367 1.37 1.37 0 00-1.368-1.367h-7.474a.977.977 0 010-1.953h10.805c.754 0 1.367-.614 1.367-1.367a1.37 1.37 0 00-1.367-1.368H30.578a.977.977 0 010-1.953h12.895a1.368 1.368 0 000-2.734H30.578a.977.977 0 010-1.953h9.838c.754 0 1.367-.614 1.367-1.367a1.37 1.37 0 00-1.367-1.368h-19.2a.976.976 0 01-.945-.735l-.774-3.026-4.263 4.264v13.506l2.358 2.057c.54.471 1.234.73 1.95.73zm28.502 0V1.953l-22.07.001v27.343h1.908V9.857c0-.54.438-.977.977-.977 1.45 0 2.63-1.18 2.63-2.629 0-.54.436-.977.976-.977h9.09c.538 0 .976.438.976.977 0 1.45 1.179 2.63 2.629 2.63.54 0 .977.437.977.976v3.908a.977.977 0 01-1.954 0v-3.036a4.597 4.597 0 01-3.5-3.501h-7.347a4.597 4.597 0 01-3.5 3.5v18.57h5.337A4.68 4.68 0 0132.337 25a4.679 4.679 0 014.673-4.674A4.679 4.679 0 0141.684 25a4.68 4.68 0 01-2.838 4.297h1.57c1.83 0 3.32 1.49 3.32 3.32a3.3 3.3 0 01-.295 1.368h.032c.244 0 .482.027.712.077V22.95a.977.977 0 011.953 0v12.377c.411.553.655 1.237.655 1.978a3.326 3.326 0 01-2.442 3.201 3.3 3.3 0 01.352 1.486 3.323 3.323 0 01-3.32 3.32h-.306a3.3 3.3 0 010 2.735h6.968zM34.29 25c0 1.5 1.22 2.72 2.72 2.72 1.5 0 2.721-1.22 2.721-2.72 0-1.5-1.22-2.72-2.72-2.72-1.5 0-2.72 1.22-2.72 2.72zm11.561-7.135a.982.982 0 00-.69-.286.984.984 0 00-.69.286.985.985 0 00-.287.69c0 .257.105.51.286.69a.984.984 0 00.69.287.982.982 0 00.978-.977.981.981 0 00-.287-.69zM8.307 44.427a.983.983 0 00-.69-.286.983.983 0 00-.69.286.984.984 0 00-.287.69c0 .257.105.509.286.69a.984.984 0 00.69.287.983.983 0 00.691-.287.984.984 0 00.286-.69.984.984 0 00-.286-.69z" fill="#0090A1"/></svg>
